X: 16583
T: Hand Me Down The Tackle
R: reel
M: 4/4
K: Dmajor
dD (3DDD DEFA|dfaf gfec|dD (3DDD DEFA|BdAF EDB,D|
dD (3DDD DEFA|dfaf gfec|Addc dAFA|GFEF GABc||
d2 fd Adfd|(3ddd fd BAFA|d2 fd Adfd|BdAF EDB,D|
d2 fd Adfd|Adef gefg|afge faec|dBAF GABc|
d2 fd Adfd|(3ddd fd BAFA|d2 fd Adfd|BdAF EDB,D|
a3b afef|gfef g2fe|faec dBAF|GFEF GABc||

